build/img/icon-confidence.svg

<svg width="31" height="27" viewBox="0 0 31 27" xmlns="http://www.w3.org/2000/svg">
<path fill="currentcolor" d="M15.1545 8.21545C14.8277 8.21545 14.5625 8.48231 14.5625 8.81157C14.5625 9.1406 14.8277 9.40769 15.1545 9.40769C15.4812 9.40769 15.7464 9.1406 15.7464 8.81157C15.7464 8.48231 15.4812 8.21545 15.1545 8.21545Z" fill="#00B2FF"/>
<path fill="currentcolor" d="M28.5328 11.7922H26.2294C25.0152 8.30075 23.2534 2.17864 20.0619 0.445933C18.4656 -0.419605 16.9568 0.184898 16.3894 1.413C16.148 1.93507 15.6658 2.20961 15.1543 2.20961C14.6359 2.20961 14.1577 1.92901 13.9193 1.41346C13.372 0.227278 11.8992 -0.432645 10.3589 0.320189C7.11631 1.90596 5.30295 8.27443 4.07925 11.7922H1.7759C0.794761 11.7922 0 12.5923 0 13.5806C0 14.5665 0.79661 15.369 1.7759 15.369H28.5328C29.5139 15.369 30.3087 14.5686 30.3087 13.5806C30.3087 12.5944 29.512 11.7922 28.5328 11.7922ZM6.15876 9.40776H12.7865C13.1134 9.40776 13.3784 9.14067 13.3784 8.81164C13.3784 8.48238 13.1134 8.21552 12.7865 8.21552H6.57267C8.35713 3.25166 10.0241 1.80932 10.876 1.39274C11.8053 0.938664 12.5703 1.31869 12.8459 1.91621C13.2802 2.85556 14.1785 3.40185 15.1543 3.40185C16.1325 3.40185 17.0297 2.85347 17.4628 1.91621C17.7465 1.30169 18.5154 0.961484 19.5002 1.49543C20.356 1.96022 22.0179 3.45052 23.7358 8.21552H17.5222C17.1952 8.21552 16.9302 8.48238 16.9302 8.81164C16.9302 9.1409 17.1952 9.40776 17.5222 9.40776H24.1501C24.4494 10.2768 24.7601 11.1735 24.9752 11.7922H5.33371C5.54806 11.1752 5.85815 10.2805 6.15876 9.40776ZM28.5328 14.1767H1.7759C1.44939 14.1767 1.18393 13.9092 1.18393 13.5806C1.18393 13.2513 1.44893 12.9845 1.7759 12.9845H28.5328C28.8593 12.9845 29.1247 13.2518 29.1247 13.5806C29.1247 13.9096 28.8595 14.1767 28.5328 14.1767Z" fill="#00B2FF"/>
<path fill="currentcolor" d="M13.9706 17.7535H4.49919C4.17222 17.7535 3.90723 18.0204 3.90723 18.3496V20.7341C3.90723 23.6924 6.29729 26.0992 9.23492 26.0992C11.4608 26.0992 13.4309 24.7204 14.2146 22.6433C14.8098 22.37 15.4994 22.37 16.0946 22.6433C16.8782 24.7204 18.8484 26.099 21.0742 26.099C24.0119 26.099 26.4019 23.6924 26.4019 20.7339V18.3494C26.4019 18.0202 26.1369 17.7533 25.81 17.7533H16.3385C16.0115 17.7533 15.7465 18.0202 15.7465 18.3494V18.9455H14.5626V18.3494C14.5626 18.0204 14.2976 17.7535 13.9706 17.7535ZM9.23492 24.907C6.95007 24.907 5.09116 23.035 5.09116 20.7341V18.9458H13.3787V20.7341C13.3787 23.0411 11.5297 24.907 9.23492 24.907ZM16.9305 18.9458H25.218V20.7341C25.218 23.035 23.3591 24.907 21.0742 24.907C18.7737 24.907 16.9305 23.0355 16.9305 20.7341V18.9458ZM15.7465 20.138V20.7341C15.7465 20.9246 15.7574 21.1144 15.7771 21.3028C15.3657 21.2271 14.9435 21.2271 14.5321 21.3028C14.5517 21.1144 14.5626 20.9246 14.5626 20.7341V20.138H15.7465Z" fill="#00B2FF"/>
<path fill="currentcolor" d="M9.23473 22.5224C8.25544 22.5224 7.45883 21.7199 7.45883 20.734C7.45883 20.4047 7.19384 20.1379 6.86687 20.1379C6.5399 20.1379 6.2749 20.4047 6.2749 20.734C6.2749 22.3773 7.60266 23.7146 9.23473 23.7146C9.5617 23.7146 9.8267 23.4475 9.8267 23.1185C9.8267 22.7892 9.5617 22.5224 9.23473 22.5224Z" fill="#00B2FF"/>
<path fill="currentcolor" d="M21.0744 23.7146C22.7065 23.7146 24.0342 22.3773 24.0342 20.734C24.0342 20.4047 23.7692 20.1379 23.4423 20.1379C23.1153 20.1379 22.8503 20.4047 22.8503 20.734C22.8503 21.7199 22.0537 22.5224 21.0744 22.5224C20.7474 22.5224 20.4824 22.7892 20.4824 23.1185C20.4824 23.4475 20.7474 23.7146 21.0744 23.7146Z" fill="#00B2FF"/>
</svg>

<svg width="31" height="27" xmlns="http://www.w3.org/2000/svg"><path fill="#00B2FF" d="M15.155 8.215a.594.594 0 00-.592.597c0 .329.265.596.591.596a.594.594 0 00.592-.596.594.594 0 00-.591-.597z"/><path fill="#00B2FF" d="M28.533 11.792h-2.304C25.015 8.301 23.253 2.18 20.062.446c-1.596-.866-3.105-.261-3.673.967a1.34 1.34 0 01-1.235.797 1.34 1.34 0 01-1.235-.797C13.372.227 11.9-.433 10.36.32 7.117 1.906 5.304 8.274 4.08 11.792H1.776c-.981 0-1.776.8-1.776 1.789 0 .986.797 1.788 1.776 1.788h26.757c.98 0 1.776-.8 1.776-1.788 0-.987-.797-1.789-1.776-1.789zM6.159 9.408h6.628a.594.594 0 00.591-.596.594.594 0 00-.591-.596H6.572c1.784-4.964 3.451-6.407 4.303-6.823.93-.454 1.694-.074 1.97.523a2.522 2.522 0 002.308 1.486c.979 0 1.876-.549 2.309-1.486.284-.614 1.052-.955 2.037-.42.856.464 2.518 1.955 4.236 6.72h-6.214a.594.594 0 00-.592.596c0 .329.265.596.592.596h6.628c.3.869.61 1.766.825 2.384H5.334c.214-.617.524-1.511.825-2.384zm22.374 4.769H1.776a.595.595 0 01-.592-.596c0-.33.265-.596.592-.596h26.757c.326 0 .592.267.592.596a.594.594 0 01-.592.596zM13.97 17.753H4.5a.594.594 0 00-.593.597v2.384c0 2.958 2.39 5.365 5.328 5.365a5.317 5.317 0 004.98-3.456 2.258 2.258 0 011.88 0 5.317 5.317 0 004.98 3.456c2.937 0 5.327-2.407 5.327-5.365v-2.385a.594.594 0 00-.592-.596h-9.471a.594.594 0 00-.592.596v.596h-1.184v-.596a.594.594 0 00-.592-.596zm-4.735 7.154c-2.285 0-4.144-1.872-4.144-4.173v-1.788h8.288v1.788c0 2.307-1.85 4.173-4.144 4.173zm7.695-5.961h8.288v1.788c0 2.301-1.859 4.173-4.144 4.173-2.3 0-4.144-1.872-4.144-4.173v-1.788zm-1.184 1.192v.596c0 .19.011.38.031.569a3.441 3.441 0 00-1.245 0c.02-.189.03-.378.03-.569v-.596h1.184z"/><path fill="#00B2FF" d="M9.235 22.522c-.98 0-1.776-.802-1.776-1.788a.594.594 0 00-.592-.596.594.594 0 00-.592.596c0 1.643 1.328 2.98 2.96 2.98a.594.594 0 00.592-.595.594.594 0 00-.592-.597zm11.839 1.193c1.632 0 2.96-1.338 2.96-2.981a.594.594 0 00-.592-.596.594.594 0 00-.592.596c0 .986-.796 1.788-1.776 1.788a.594.594 0 00-.592.597c0 .329.265.596.592.596z"/></svg>
